!!!!SEGMENT: pl-sa--68-a-ii-8--003_mrozowski-tadeusz--missa-ex-g-symphonia-post-epistolam.krn
!!!cenid: 17xx:364
!!!COM: Mrozowski, Tadeusz
!!!COM-rismid: pe30020313
!!!CDT: <1790->1810
!!!CNT:
!!!OPR: Missa ex G
!!!OTL: Symphonia post Epistolam
!!!OMV: 003
!!!PDT:
!!!AGN: Sacred; Mass
!!!SMS-siglum: PL-SA
!!!SMS-shelfmark: 68/A II 8
!!!SMS-shelfwork: 001-003 M
!!!NIFC-rismid: 1001035348
!!!URL-scan: http://bc.bdsandomierz.pl/dlibra/publication/1339/edition/1307/content
!!!ONB-nifc: UWAGA: części Mszy: Kyrie, Gloria, Symphonia post Epistolam, Credo, Tantum Ergo Sacramentum, Sanctus, Agnus, Dona nobis, Presto
**kern	**dynam	**kern	**dynam	**kern	**dynam	**kern
*part4	*part4	*part3	*part3	*part2	*part2	*part1
*staff4	*	*staff3	*	*staff2	*	*staff1
*Iempty	*	*Ivioln	*	*Ivioln	*	*Ivox
*I"Fundamento	*	*I"Violino Secundo.	*	*I"Violino Primo	*	*I"Canto Solo.
*I'Fund.	*	*I'Vno II	*	*I'Vno I	*	*I'C solo
*ICstr	*	*ICstr	*	*ICstr	*	*ICvox
*clefF4	*	*clefG2	*	*clefG2	*	*clefC1
*k[f#]	*	*k[f#]	*	*k[f#]	*	*k[f#]
*G:	*	*G:	*	*G:	*	*G:
*M4/4	*	*M4/4	*	*M4/4	*	*M4/4
*met(c)	*	*met(c)	*	*met(c)	*	*met(c)
*>[A,A,B,B,C,C,D,D]	*	*	*	*	*	*
=1	=1	=1	=1	=1	=1	=1
*>A	*	*	*	*	*	*
!LO:TX:a:t=Allo	!	!	!	!	!	!
!LO:TX:b:t=Sym-pho-nia.	!	!LO:TX:a:t=allo.	!	!LO:TX:b:i:t=Sympfonia	!	!
!LO:TX:a:t=P:problem:mixed beam	!	!	!	!LO:TX:a:t=Allo.	!	!
8GG/L	.	8G/L	f	4r	.	1ryy
8G/	.	8d/	.	.	.	.
8G\	.	8B/	.	8.g/L	.	.
8G/J	.	8d/J	.	.	.	.
.	.	.	.	32f#/LL	.	.
.	.	.	.	32g/JJJ	.	.
*2\right	*	*	*	*	*	*
*tremolo	*	*rep	*	*	*	*
8G\L	.	8G/L	.	4r	.	.
8G\	.	8d/	.	.	.	.
!	!	!LO:TX:a:t=Symphonia. post Epistolam –	!	!	!	!
8G\	.	8B/	.	8.b/L	.	.
8G\J	.	8d/J	.	.	.	.
.	.	.	.	32a/LL	.	.
.	.	.	.	32b/JJJ	.	.
*	*	*Xrep	*	*	*	*
=2	=2	=2	=2	=2	=2	=2
8G\L	.	8G/L	.	4r	.	1ryy
8G\	.	8d/	.	.	.	.
8G\	.	8B/	.	8.dd\L	.	.
8G\J	.	8d/J	.	.	.	.
.	.	.	.	32cc\LL	.	.
.	.	.	.	32dd\JJJ	.	.
*	*	*rep	*	*	*	*
8G\L	.	8G/L	.	4r	.	.
8G\	.	8d/	.	.	.	.
8G\	.	8B/	.	8.gg\L	.	.
8G\J	.	8d/J	.	.	.	.
.	.	.	.	32ff#\LL	.	.
.	.	.	.	32gg\JJJ	.	.
*Xtremolo	*	*Xrep	*	*	*	*
=3	=3	=3	=3	=3	=3	=3
4G\	.	8b/L	.	8bb\L	.	1ryy
.	.	8a/J	.	8aa\J	.	.
*	*	*	*	*2\right	*	*
4C/	.	2g/	.	2gg\	.	.
4D\	.	.	.	.	.	.
4D\	.	4f#/	.	4ff#\	.	.
=4	=4	=4	=4	=4	=4	=4
4F#\	.	4f#/	.	4ff#\	.	1ryy
4G\	.	4g/	.	4gg\	.	.
8d\L	.	8d/L	.	8dd\L	.	.
8c\	.	8c/	.	8cc\	.	.
8B\	.	8B/	.	8b\	.	.
8A\J	.	8A/J	.	8a\J	.	.
=5	=5	=5	=5	=5	=5	=5
*tremolo	*	*	*	*	*	*
8G\L	.	8G/L	.	4r	.	1ryy
8G\	.	8d/	.	.	.	.
8G\	.	8B/	.	8.g/L	.	.
8G\J	.	8d/J	.	.	.	.
.	.	.	.	32f#/LL	.	.
.	.	.	.	32g/JJJ	.	.
8G\L	.	8G/L	.	4r	.	.
8G\	.	8e/	.	.	.	.
8G\	.	8c/	.	8.cc\L	.	.
8G\J	.	8e/J	.	.	.	.
.	.	.	.	32b\LL	.	.
.	.	.	.	32cc\JJJ	.	.
!	!	!LO:PB:g=original	!	!	!	!
=6	=6	=6	=6	=6	=6	=6
8G\L	.	8G/L	.	4r	.	1ryy
8G\	.	8d/	.	.	.	.
8G\	.	8B/	.	8.ee\L	.	.
8G\J	.	8d/J	.	.	.	.
.	.	.	.	32dd\LL	.	.
.	.	.	.	32ee\JJJ	.	.
!	!	!	!	!LO:LB:g=original	!	!
8G\L	.	8G/L	.	4r	.	.
8G\	.	8e/	.	.	.	.
8G\	.	8c/	.	8.gg\L	.	.
8G\J	.	8e/J	.	.	.	.
.	.	.	.	32ff#\LL	.	.
.	.	.	.	32gg\JJJ	.	.
*Xtremolo	*	*	*	*	*	*
!LO:LB:g=original	!	!	!	!	!	!
=7	=7	=7	=7	=7	=7	=7
4G\	.	8b/L	.	8bb\L	.	1ryy
.	.	8a/J	.	8aa\J	.	.
8BB/L	.	2g/	.	2gg\	.	.
8C/J	.	.	.	.	.	.
4D/	.	.	.	.	.	.
4DD/	.	4f#/	.	4ff#\	.	.
=8	=8	=8!|:	=8	=8!|:	=8	=8
!	!	!	!LO:DY:t=p.	!	!	!
4F#\	.	8f#/L	p	8ff#\L	.	1ryy
.	.	8g/J	.	8gg\J	.	.
!	!	!LO:TX:a:t=h	!	!	!	!
4G\	.	8b\L	.	8dd\L	.	.
!	!	!LO:TX:a:t=h	!	!	!	!
.	.	8b\J	.	8dd\J	.	.
!	!	!LO:TX:a:t=h	!	!	!	!
4r	.	4b\	.	4dd\	.	.
!	!	!LO:TX:a:t=h	!	!	!	!
4D\	.	4b\	.	4dd\	.	.
=9	=9	=9	=9	=9	=9	=9
*tremolo	*	*	*	*	*	*
8G\L	.	4.b\	.	4.dd\	.	1ryy
8G\	.	.	.	.	.	.
8G\	.	.	.	.	.	.
8G\J	.	8cc\	.	8ee\	.	.
*Xtremolo	*	*	*	*	*	*
4G\	.	8b/L	.	8dd\L	.	.
.	.	8a/	.	8cc\	.	.
4D\	.	8g/	.	8a\	.	.
.	.	8b/J	.	8cc\J	.	.
=10	=10	=10	=10	=10	=10	=10
4GG/	.	4g/	.	4b\	.	1ryy
4r	.	4b/	.	4dd\	.	.
2r	.	4b/	.	4dd\	.	.
.	.	4b/	.	4dd\	.	.
=11	=11	=11	=11	=11	=11	=11
4G\	.	4.b/	.	4.dd\	.	1ryy
4G\	.	.	.	.	.	.
.	.	8g/	.	8b\	.	.
4D\	.	8b/L	.	8dd\L	.	.
.	.	8a/	.	8cc\	.	.
4D\	.	8g/	.	8a\	.	.
.	.	8a/J	.	8cc\J	.	.
=12	=12	=12:|!	=12	=12:|!	=12	=12
!	!	!LO:TX:a:t=P:problem: t. 12-15 zapisane w formie powtórki	!	!LO:TX:a:t=P:problem: t. 12-15 zapisane w formie powtórki	!	!
4GG/	.	8f#/Lyy	.	8ff#\Lyy	.	1ryy
.	.	8g/Jyy	.	8gg\Jyy	.	.
4G\	.	8b\Lyy	.	8dd\Lyy	.	.
.	.	8b\Jyy	.	8dd\Jyy	.	.
4G\	.	4b\yy	.	4dd\yy	.	.
4G\	.	4b\yy	.	4dd\yy	.	.
=13	=13	=13	=13	=13	=13	=13
4G\	.	4.b\yy	.	4.dd\yy	.	1ryy
4r	.	.	.	.	.	.
.	.	8cc\yy	.	8ee\yy	.	.
4r	.	8b/Lyy	.	8dd\Lyy	.	.
.	.	8a/yy	.	8cc\yy	.	.
4D\	.	8g/yy	.	8a\yy	.	.
.	.	8b/Jyy	.	8cc\Jyy	.	.
!LO:LB:g=original	!	!	!	!	!	!
=14	=14	=14	=14	=14	=14	=14
4GG/	.	4g/yy	.	4b\yy	.	1ryy
4r	.	4b/yy	.	4dd\yy	.	.
2r	.	4b/yy	.	4dd\yy	.	.
.	.	4b/yy	.	4dd\yy	.	.
=15	=15	=15	=15	=15	=15	=15
4G\	.	4.b/yy	.	4.dd\yy	.	1ryy
4G\	.	.	.	.	.	.
.	.	8g/yy	.	8b\yyyy	.	.
4D\	.	8b/Lyy	.	8dd\Lyy	.	.
.	.	8a/yy	.	8cc\yy	.	.
4D\	.	8g/yy	.	8a\yy	.	.
.	.	8a/Jyy	.	8cc\Jyy	.	.
=16	=16	=16	=16	=16	=16	=16
4GG/	.	8g'/L	.	8b'\L	.	1ryy
.	.	8g'/	.	8b'\	.	.
!	!	!LO:TX:a:t=P:problem:f = for.	!	!	!	!
4r	.	8a'/	f	8cc'\	.	.
.	.	8b'/J	.	8dd'\J	.	.
2r	.	8cc\L	.	8ee'\L	.	.
.	.	8dd\	.	8ff#'\	.	.
.	.	8ee\	.	8gg'\	.	.
.	.	8ff#\J	.	8aa'\J	.	.
=17	=17	=17	=17	=17	=17	=17
4G\	.	8gg\L	.	8bb'\L	.	1ryy
.	.	8dd\	.	8ff#'\	.	.
4r	.	8ee\	.	8gg'\	.	.
.	.	8ff#\J	.	8aa'\J	.	.
2r	.	8gg\L	.	8bb'\L	.	.
.	.	8ff#\	.	8aa'\	.	.
.	.	8gg\	.	8bb'\	.	.
.	.	8ee\J	.	8ccc#X'\J	.	.
!	!	!LO:LB:g=original	!	!	!	!
=18	=18	=18	=18	=18	=18	=18
4D/	.	4ff#/ 4a/ 4d/	.	4ddd\	.	1ryy
4D/	.	4ff#/ 4a/ 4d/	.	4ddd\	.	.
4D/	.	4ff#/ 4a/ 4d/	.	4ddd\	.	.
4D/	.	4ff#/ 4a/ 4d/	.	4ddd\	.	.
=19	=19	=19	=19	=19	=19	=19
2D/	.	2ff#/ 2a/ 2d/	.	2ddd\	.	1ryy
2r	.	2r	.	2r	.	.
=20	=20	=20!|:	=20	=20!|:	=20	=20
*	*	*2\right	*	*	*	*
!	!	!	!LO:DY:t=ff.	!	!	!
4D/	.	2ff#\	ff	2aa\	.	1ryy
4D/	.	.	.	.	.	.
!	!	!	!	!	!LO:DY:t=fo.	!
4D/	.	(8ff#\L	.	(8aa\L	f	.
.	.	8ee\	.	8gg\	.	.
4D/	.	8ee\	.	8gg\	.	.
.	.	8dd\J)	.	8ff#\J)	.	.
=21	=21	=21	=21	=21	=21	=21
4D/	.	4dd\	.	4ff#'\	.	1ryy
4r	.	4dd\	.	4ff#'\	.	.
4r	.	4ee\	.	4gg'\	.	.
4D/	.	4ff#\	.	4aa'\	.	.
!LO:LB:g=original	!	!	!	!LO:LB:g=original	!	!
=22	=22	=22	=22	=22	=22	=22
4r	.	2gg\	.	2bb\	.	1ryy
4G\	.	.	.	.	.	.
4GG/	.	8gg\L	.	(8bb\L	.	.
.	.	8ff#\	.	8aa\	.	.
4G\	.	8ff#\	.	8aa\	.	.
.	.	8ee\J	.	8gg\J)	.	.
=23	=23	=23	=23	=23	=23	=23
4r	.	2ee\	.	2gg\	.	1ryy
4E\	.	.	.	.	.	.
4C#X/	.	4ee\	.	4gg\	.	.
4AA/	.	4dd\	.	4ff#\	.	.
=24	=24	=24	=24	=24	=24	=24
4AA/	.	2ee\	.	2gg\	.	1ryy
4AA/	.	.	.	.	.	.
4AA/	.	(8ee\L	.	(8gg\L	.	.
.	.	8dd\	.	8ff#\	.	.
4AA/	.	8dd\	.	8ff#\	.	.
.	.	8cc#X\J)	.	8ee\J)	.	.
=25	=25	=25	=25	=25	=25	=25
!	!	!LO:SIC:s:v=cc#	!	!	!	!
4AA/	.	4cc'\	.	4ee\	.	1ryy
!	!	!LO:SIC:s:v=cc#	!	!	!	!
4r	.	4cc'\	.	4ee\	.	.
4r	.	4dd'\	.	4ff#\	.	.
4AA/	.	4ee'\	.	4gg\	.	.
=26	=26	=26	=26	=26	=26	=26
4D\	.	2ff#\	.	2aa\	.	1ryy
4D\	.	.	.	.	.	.
4D\	.	8ff#\L	.	(8aa\L	.	.
.	.	8ee\	.	8gg\	.	.
4D\	.	8ee\	.	8gg\	.	.
.	.	8dd\J	.	8ff#\J)	.	.
=27	=27	=27	=27	=27	=27	=27
8D\L	.	2dd\	.	2ff#\	.	1ryy
8D\	f	.	.	.	.	.
8F#\	.	.	.	.	.	.
8A\J	.	.	.	.	.	.
8d\L	.	4r	.	4r	.	.
8A\	.	.	.	.	.	.
8F#\	.	4ff#\	.	4aa\	.	.
8D\J	.	.	.	.	.	.
=28	=28	=28:|!	=28	=28:|!	=28	=28
!	!	!LO:TX:a:t=P:problem: takty 28-35 zapisane jako powtórka	!	!	!	!
!	!	!	!LO:DY:t=ff.	!LO:TX:a:t=P:problem: takty 28-35 zapisane jako powtórka	!	!
4D\	p	2ff#\yy	ff	2aa\yy	.	1ryy
4D\	.	.	.	.	.	.
!	!	!	!	!	!LO:DY:t=fo.	!
4D\	.	(yy8ff#\Lyy	.	(yy8aa\Lyy	f	.
.	.	8ee\yy	.	8gg\yy	.	.
4D\	.	8ee\yy	.	8gg\yy	.	.
.	.	8dd\J)yy	.	8ff#\J)yy	.	.
!LO:LB:g=original	!	!	!	!	!	!
=29	=29	=29	=29	=29	=29	=29
4D\	.	4dd\yy	.	4ff#'\yy	.	1ryy
4r	.	4dd\yy	.	4ff#'\yy	.	.
4r	.	4ee\yy	.	4gg'\yy	.	.
4D\	.	4ff#\yy	.	4aa'\yy	.	.
=30	=30	=30	=30	=30	=30	=30
4r	.	2gg\yy	.	2bb\yy	.	1ryy
4G\	.	.	.	.	.	.
4GG/	.	8gg\Lyy	.	(yy8bb\Lyy	.	.
.	.	8ff#\yy	.	8aa\yy	.	.
4G\	.	8ff#\yy	.	8aa\yy	.	.
.	.	8ee\Jyy	.	8gg\J)yy	.	.
=31	=31	=31	=31	=31	=31	=31
4r	.	2ee\yy	.	2gg\yy	.	1ryy
4E\	.	.	.	.	.	.
4C#X/	.	4ee\yy	.	4gg\yy	.	.
4AA/	.	4dd\yy	.	4ff#\yy	.	.
=32	=32	=32	=32	=32	=32	=32
4AA/	.	2ee\yy	.	2gg\yy	.	1ryy
4AA/	.	.	.	.	.	.
4AA/	.	(yy8ee\Lyy	.	(yy8gg\Lyy	.	.
.	.	8dd\yy	.	8ff#\yy	.	.
4AA/	.	8dd\yy	.	8ff#\yy	.	.
.	.	8cc#X\J)yy	.	8ee\J)yy	.	.
=33	=33	=33	=33	=33	=33	=33
!	!	!LO:SIC:s:v=cc#	!	!	!	!
4AA/	.	4cc'\yy	.	4ee\yy	.	1ryy
!	!	!LO:SIC:s:v=cc#	!	!	!	!
4r	.	4cc'\yy	.	4ee\yy	.	.
4r	.	4dd'\yy	.	4ff#\yy	.	.
4AA/	.	4ee'\yy	.	4gg\yy	.	.
=34	=34	=34	=34	=34	=34	=34
4D\	.	2ff#\yy	.	2aa\yy	.	1ryy
4D\	.	.	.	.	.	.
4D\	.	8ff#\Lyy	.	(yy8aa\Lyy	.	.
.	.	8ee\yy	.	8gg\yy	.	.
4D\	.	8ee\yy	.	8gg\yy	.	.
.	.	8dd\Jyy	.	8ff#\J)yy	.	.
=35	=35	=35	=35	=35	=35	=35
8D|\L	.	2dd\yy	.	2ff#\yyyy	.	1ryy
8D|\	f	.	.	.	.	.
8F#|\	.	.	.	.	.	.
8A|\J	.	.	.	.	.	.
8d|\L	.	4ryy	.	4ryy	.	.
8A|\	.	.	.	.	.	.
8F#|\	.	4ff#\yy	.	4aa\yy	.	.
8A|\J	.	.	.	.	.	.
!LO:LB:g=original	!	!	!	!	!	!
=36	=36	=36	=36	=36	=36	=36
8B\L	.	8b\L	.	8b'\L	.	1ryy
8c#X\	.	8cc#X\	f	8cc#X'\	.	.
8d\	.	8dd\	.	8dd'\	.	.
8B\J	.	8b\J	.	8b'\J	.	.
8A\L	.	8a\L	.	8a'\L	.	.
8c#X\	.	8cc#X\	.	8cc#'\	.	.
8d\	.	8dd\	.	8dd'\	.	.
8A\J	.	8a\J	.	8a'\J	.	.
!	!	!LO:LB:g=original	!	!	!	!
=37	=37	=37	=37	=37	=37	=37
8G\L	.	8g/L	.	8g'/L	.	1ryy
8A\	.	8a/	.	8a'/	.	.
8B\	.	8b/	.	8b'/	.	.
8G\J	.	8g/J	.	8g'/J	.	.
8F#\L	.	8f#/L	.	8f#'/L	.	.
8G\	.	8g/	.	8g'/	.	.
8A\	.	8a/	.	8a'/	.	.
8F#\J	.	8f#/J	.	8f#'/J	.	.
=38	=38	=38	=38	=38	=38	=38
8F#\L	.	8d/L	.	8d'/L	.	1ryy
8D\	.	8d/	.	8d'/	.	.
8E\	.	8e/	.	8e'/	.	.
8F#\J	.	8f#/J	.	8f#'/J	.	.
8G\L	.	8g/L	.	8g'/L	.	.
8A\	.	8a/	.	8a'/	.	.
8B\	.	8b/	.	8b'/	.	.
8c#X\J	.	8cc#X/J	.	8cc#X'/J	.	.
=39	=39	=39	=39	=39	=39	=39
!	!	!LO:TX:a:t=P:problem:mixed beam	!	!LO:TX:a:t=P:problem:mixed beam	!	!
8d\L	.	8dd|\L	.	8dd'\L	.	1ryy
8F#\	.	8f#|/	.	8f#'/	.	.
8G\	.	8g|/	.	8g'/	.	.
8A\J	.	8a|/J	.	8a'/J	.	.
8B\L	.	8b|\L	.	8b'\L	.	.
8c#X\	.	8cc#X|\	.	8cc#X'\	.	.
8d\	.	8dd|\	.	8dd'\	.	.
8e\J	.	8ee|\J	.	8ee'\J	.	.
!LO:LB:g=original	!	!	!	!	!	!
=40	=40	=40	=40	=40	=40	=40
8f#\L	.	8ff#\L	.	8ff#'\L	.	1ryy
8c#X\	.	8cc#X\	.	8cc#X'\J	.	.
!	!	!	!	!LO:LB:g=original	!	!
8d\	.	8dd\	.	8dd'\L	.	.
8A\J	.	8a\J	.	8a'\J	.	.
!LO:TX:t=P:problem: mixed beam	!	!	!	!	!	!
8B\L	.	8b/L	.	8b'/L	.	.
8G\	.	8g/	.	8g'/	.	.
8A\	.	8a/	.	8a'/	.	.
8AA/J	.	8A/J	.	8A'/J	.	.
=41	=41	=41	=41	=41	=41	=41
8D\L	.	4d/	.	4d/	.	1ryy
8d\	.	.	.	.	.	.
8A\	.	4d/	.	4d/	.	.
8F#\J	.	.	.	.	.	.
8D\L	.	4d/	.	4d/	.	.
8d\	.	.	.	.	.	.
8A\	.	4d/	.	4d/	.	.
8F#\J	.	.	.	.	.	.
=42	=42	=42	=42	=42	=42	=42
2D\	.	2d/	.	2d/	.	1ryy
!	!	!LO:TX:a:t=42.	!	!LO:TX:a:t=42	!	!
8d\L	.	2r	.	2r	.	.
8cn\	.	.	.	.	.	.
8B\	.	.	.	.	.	.
8A\J	.	.	.	.	.	.
!LO:PB:g=original	!	!	!	!	!	!
=43:|!|:	=43:|!|:	=43:|!|:	=43:|!|:	=43:|!|:	=43:|!|:	=43:|!|:
*>B	*	*	*	*	*	*
*tremolo	*	*	*	*	*	*
8D\L	f	8d/L	.	4r	.	1ryy
8D\	.	8a/	.	.	.	.
8D\	.	8f#/	f	8.d/L	.	.
8D\J	.	8a/J	.	.	.	.
.	.	.	.	32c#X/LL	.	.
.	.	.	.	32d/JJJ	.	.
*	*	*rep	*	*	*	*
8D\L	.	8d/L	.	4r	.	.
8D\	.	8a/	.	.	.	.
8D\	.	8f#/	.	8.f#/L	.	.
8D\J	.	8a/J	.	.	.	.
.	.	.	.	32e/LL	.	.
.	.	.	.	32f#/JJJ	.	.
*	*	*Xrep	*	*	*	*
=44	=44	=44	=44	=44	=44	=44
8D\L	.	8d/L	.	4r	.	1ryy
8D\	.	8a/	.	.	.	.
8D\	.	8f#/	.	8.a/L	.	.
8D\J	.	8a/J	.	.	.	.
.	.	.	.	32g/LL	.	.
.	.	.	.	32a/JJJ	.	.
*	*	*rep	*	*	*	*
8D\L	.	8d/L	.	4r	.	.
8D\	.	8a/	.	.	.	.
8D\	.	8f#/	.	8.dd\L	.	.
8D\J	.	8a/J	.	.	.	.
.	.	.	.	32cc#X\LL	.	.
.	.	.	.	32dd\JJJ	.	.
*Xtremolo	*	*Xrep	*	*	*	*
=45	=45	=45	=45	=45	=45	=45
4d\	.	8a/L	.	8ff#\L	.	1ryy
.	.	8g/J	.	8ee\J	.	.
4G\	.	2f#/	.	2dd\	.	.
4A\	.	.	.	.	.	.
4AA/	.	4e/	.	4cc#X\	.	.
!	!	!LO:LB:g=original	!	!	!	!
=46	=46	=46	=46	=46	=46	=46
!	!	!	!	!LO:SIC:s:v= cc#	!	!
4c#X\	.	4e/	.	4cc\	.	1ryy
4d\	.	4f#/	.	4dd\	.	.
8A\L	.	8a'/L	.	8a/L	.	.
8G\	.	8g'/	.	8g/	.	.
8F#\	.	8f#'/	.	8f#/	.	.
8E\J	.	8e'/J	.	8e/J	.	.
=47	=47	=47	=47	=47	=47	=47
*tremolo	*	*	*	*	*	*
8D\L	.	8d/L	.	4r	.	1ryy
8D\	.	8a/	.	.	.	.
8D\	.	8f#/	.	8.d/L	.	.
8D\J	.	8a/J	.	.	.	.
.	.	.	.	32c/LL	.	.
.	.	.	.	32d/JJJ	.	.
8D\L	.	8d/L	.	4r	.	.
8D\	.	8b/	.	.	.	.
8D\	.	8g/	.	8.g/L	.	.
8D\J	.	8b/J	.	.	.	.
.	.	.	.	32f#/LL	.	.
.	.	.	.	32g/JJJ	.	.
=48	=48	=48	=48	=48	=48	=48
8D\L	.	8d/L	.	4r	.	1ryy
8D\	.	8b/	.	.	.	.
8D\	.	8g/	.	8.b\L	.	.
8D\J	.	8b/J	.	.	.	.
.	.	.	.	32a\LL	.	.
.	.	.	.	32b\JJJ	.	.
8D\L	.	8d/L	.	4r	.	.
8D\	.	8a/	.	.	.	.
8D\	.	8f#/	.	8.dd\L	.	.
8D\J	.	8a/J	.	.	.	.
.	.	.	.	32cc\LL	.	.
.	.	.	.	32dd\JJJ	.	.
*Xtremolo	*	*	*	*	*	*
!	!	!	!	!LO:LB:g=original	!	!
=49	=49	=49	=49	=49	=49	=49
4d\	.	8a/L	.	8ff#\L	.	1ryy
.	.	8g/J	.	8ee\J	.	.
4G\	.	2f#/	.	2dd\	.	.
4A\	.	.	.	.	.	.
4AA/	.	4e/	.	4cc#X\	.	.
=50	=50	=50	=50	=50	=50	=50
!	!	!	!	!LO:SIC:s:v= cc#	!	!
4AA/	.	4e/	.	4cc\	.	1ryy
4D/	.	4f#/	.	4dd\	.	.
!	!	!	!LO:DY:t=p.	!	!	!
2r	.	4b\	p	4dd\	.	.
.	.	8gg\L	.	8bb\L	.	.
.	.	8b\J	.	8dd\J	.	.
!LO:LB:g=original	!	!	!	!	!	!
=51	=51	=51	=51	=51	=51	=51
4r	.	8b\L	.	8dd\L	.	1ryy
.	.	8a\J	.	8ccn\J	.	.
!	!LO:DY:t=pia.	!	!	!	!	!
4D|\	p	4a/	.	4cc\	.	.
4D|\	.	8a/L	.	8cc\L	.	.
.	.	8f#/	.	8a\	.	.
4D|\	.	8g/	.	8b\	.	.
.	.	8a/J	.	8cc\J	.	.
=52	=52	=52	=52	=52	=52	=52
4r	.	4g/	.	4b\	.	1ryy
4G\	.	4b/	.	4dd\	.	.
4GG/	.	4b/	.	4dd\	.	.
4G\	.	8gg\L	.	8bb\L	.	.
.	.	8b\J	.	8dd\J	.	.
=53	=53	=53	=53	=53	=53	=53
4r	.	8b/L	.	8dd\L	.	1ryy
.	.	8a/J	.	8cc\J	.	.
4D\	.	4a/	.	4cc\	.	.
4D\	.	8a/L	.	8cc\L	.	.
.	.	8f#/	.	8a\	.	.
4D\	.	8g/	.	8b\	.	.
.	.	8a/J	.	8cc\J	.	.
=54	=54	=54	=54	=54	=54	=54
*tremolo	*	*	*	*	*	*
8G\L	.	8g/L	f	(8b\L	.	1ryy
8G\	.	8b/	.	8dd\)	.	.
8G\	.	8b/	.	8dd'\	.	.
8G\J	.	8b/J	.	8dd'\J	.	.
8G\L	.	8b\L	.	(8dd\L	.	.
8G\	.	8cc\	.	8ee\)	.	.
8G\	.	8cc\	.	8ee'\	.	.
8G\J	.	8cc\J	.	8ee'\J	.	.
!	!	!LO:LB:g=original	!	!	!	!
=55	=55	=55	=55	=55	=55	=55
8G\L	.	(8f#/L	.	(8ee\L	.	1ryy
8G\	.	8a/)	.	8ff#\)	.	.
8G\	.	8a'/	.	8ff#'\	.	.
8G\J	.	8a'/J	.	8ff#'\J	.	.
8G\L	.	(8a/L	.	(8ff#\L	.	.
8G\	.	8b/)	.	8gg\)	.	.
8G\	.	8b'/	.	8gg'\	.	.
8G\J	.	8b'/J	.	8gg'\J	.	.
*Xtremolo	*	*	*	*	*	*
=56	=56	=56	=56	=56	=56	=56
4r	.	8b\L	.	8gg\L	.	1ryy
!	!	!	!LO:DY:t=p.	!	!	!
.	.	8dd\J	p	8bb\J	.	.
4G\	.	4.cc\	.	4.aa\	.	.
4F#\	.	.	.	.	.	.
.	.	8a\L	.	8gg'\L	.	.
4D\	.	8b\	.	8aa'\	.	.
.	.	8cc\J	.	8bb'\J	.	.
=57	=57	=57	=57	=57	=57	=57
4r	.	8b\L	.	8gg\L	.	1ryy
.	.	8dd\J	.	8bb\J	.	.
4G\	.	4.cc\	.	4.aa\	.	.
4F#\	.	.	.	.	.	.
.	.	8a\L	.	8ff#'\L	.	.
4D\	.	8b\	.	8gg'\	.	.
.	.	8cc\J	.	8aa'\J	.	.
!LO:LB:g=original	!	!	!	!LO:LB:g=original	!	!
=58	=58	=58	=58	=58	=58	=58
4G\	.	4b/ 4d/	f	4gg/ 4b/ 4d/	.	1ryy
4GG/	f	4b/ 4d/	.	4gg/ 4b/ 4d/	.	.
4GG/	.	4b/ 4d/	.	4gg/ 4b/ 4d/	.	.
4r	.	4r	.	4r	.	.
=59:|!|:	=59:|!|:	=59:|!|:	=59:|!|:	=59:|!|:	=59:|!|:	=59:|!|:
*>C	*	*	*	*	*	*
!	!LO:DY:t=p.p.	!	!LO:DY:t=p.p.	!	!LO:DY:t=p.	!
4G\	pp	2b\	pp	2dd\	p	1ryy
4G\	.	.	.	.	.	.
4G\	.	(8b/L	.	(8dd\L	.	.
.	.	8a/	.	8cc\	.	.
4G\	.	8a/	.	8b\	.	.
.	.	8g/J)	.	8a\J)	.	.
=60	=60	=60	=60	=60	=60	=60
4G\	.	4g'/	.	4b\	.	1ryy
4r	.	4g'/	.	4b\	.	.
4r	.	(4a/	.	4cc\	.	.
4G\	.	4b/)	.	4dd\	.	.
=61	=61	=61	=61	=61	=61	=61
4r	.	2cc\	.	2ee\	.	1ryy
4c\	.	.	.	.	.	.
!	!	!LO:TX:a:t=P:problem: nieczytelny napis	!	!	!	!
!	!	!LO:TX:a:t=bis	!	!	!	!
4C/	.	8cc\L	.	(8ee\L	.	.
.	.	8b\	.	8dd\	.	.
4c\	.	8b\	.	8dd\	.	.
.	.	8a\J	.	8cc\J)	.	.
=62	=62	=62	=62	=62	=62	=62
4r	.	2.a/	.	2.cc\	.	1ryy
4A|\	.	.	.	.	.	.
4F#|\	.	.	.	.	.	.
4D|\	.	4g/	.	4b\	.	.
=63	=63	=63	=63	=63	=63	=63
4D\	.	2a/	.	2cc\	.	1ryy
4D\	.	.	.	.	.	.
4D\	.	(8a/L	.	(8cc\L	.	.
.	.	8g/	.	8b\	.	.
4D\	.	8g/	.	8b\	.	.
.	.	8f#/J)	.	8a\J)	.	.
=64	=64	=64	=64	=64	=64	=64
4D\	.	4f#/	.	4a/	.	1ryy
4r	.	4f#/	.	4a/	.	.
4r	.	4g/	.	4b/	.	.
4D\	.	4a/	.	4cc/	.	.
!LO:LB:g=original	!	!LO:LB:g=original	!	!	!	!
=65	=65	=65	=65	=65	=65	=65
4GG/	.	2b\	.	2dd\	.	1ryy
4GG/	.	.	.	.	.	.
4GG/	.	(8b\L	.	(8dd\L	.	.
.	.	8a\	.	8cc\	.	.
4GG/	.	8a\	.	8cc\	.	.
.	.	8g\J)	.	8b\J)	.	.
=66	=66	=66	=66	=66	=66	=66
8GG'/L	.	2g/	.	2b\	.	1ryy
8GG'/	.	.	.	.	.	.
8BB'/	f	.	.	.	.	.
8D'/J	.	.	.	.	.	.
8G|\L	.	4r	.	4r	.	.
8D|\	.	.	.	.	.	.
8BB|\	.	4b\	.	4ee\	.	.
8GG|\J	.	.	.	.	.	.
=67:|!|:	=67:|!|:	=67:|!|:	=67:|!|:	=67:|!|:	=67:|!|:	=67:|!|:
*>D	*	*	*	*	*	*
8E|\L	.	(2cc\	f	8ee|\L	.	1ryy
8F#|\	.	.	.	8ff#|\	.	.
8G|\	.	.	.	8gg|\	.	.
8BB|\J	.	.	.	8b|\J	.	.
8C|/L	.	2a\)	.	8cc|\L	.	.
8D|/	.	.	.	8dd|\	.	.
8E|/	.	.	.	8ee|\	.	.
8C|/J	.	.	.	8cc|\J	.	.
=68	=68	=68	=68	=68	=68	=68
8AA|/L	.	(2f#/	.	8a\L	.	1ryy
8BB|/	.	.	.	8b\	.	.
8C|/	.	.	.	8cc\	.	.
8AA|/J	.	.	.	8a\J	.	.
8FF#|/L	.	2d/)	.	8f#/L	.	.
8GG|/	.	.	.	8g/	.	.
8AA|/	.	.	.	8a/	.	.
8FF#|/J	.	.	.	8f#/J	.	.
!	!	!	!	!LO:LB:g=original	!	!
=69	=69	=69	=69	=69	=69	=69
8GG|/L	.	8g'/L	.	8g|/L	.	1ryy
8GG|/	.	8g'/	.	8g|/	.	.
8AA|/	.	8f#'/	.	8a|/	.	.
8BB|/J	.	8g'/J	.	8b|/J	.	.
8C|/L	.	8a'/L	.	8cc|\L	.	.
8D|/	.	8b'/	.	8dd|\	.	.
8E|/	.	8cc'/	.	8ee|\	.	.
8F#|/J	.	8a'/J	.	8ff#|\J	.	.
!LO:LB:g=original	!	!	!	!	!	!
=70	=70	=70	=70	=70	=70	=70
8G|\L	.	8b'\L	.	8gg|\L	.	1ryy
8D|\	.	8b'\	.	8dd|\	.	.
8E|\	.	8cc'\	.	8ee|\	.	.
8F#|\J	.	8dd'\J	.	8ff#|\J	.	.
8G|\L	.	8ee'\L	.	8gg|\L	.	.
8A|\	.	8ff#'\	.	8aa|\	.	.
8B|\	.	8gg'\	.	8bb|\	.	.
8c|\J	.	8aa'\J	.	8ccc|\J	.	.
=71	=71	=71	=71	=71	=71	=71
8d|\L	.	8bb'\L	.	8ddd\L	.	1ryy
8B|\	.	8gg'\	.	8bb\	.	.
8c|\	.	8aa'\	.	8ccc\	.	.
8A|\J	.	8ff#'\J	.	8aa\J	.	.
8B|\L	.	8gg'\L	.	8bb\L	.	.
8G|\	.	8b'\	.	8gg\	.	.
8A|\	.	8cc'\	.	8aa\	.	.
8F#|\J	.	8a'\J	.	8dd\J	.	.
=72	=72	=72	=72	=72	=72	=72
!LO:TX:a:t=P:problem:mixed beam	!	!	!	!	!	!
8GG/L	.	4b/ 4d/	.	4gg/ 4b/ 4d/	.	1ryy
8G\	.	.	.	.	.	.
8D\	.	4b/ 4d/	.	4gg/ 4b/ 4d/	.	.
8BB\J	.	.	.	.	.	.
!LO:TX:a:t=P:problem:mixed beam	!	!	!	!	!	!
8GG/L	.	4b/ 4d/	.	4gg/ 4b/ 4d/	.	.
8G\	.	.	.	.	.	.
8D\	.	4b/ 4d/	.	4gg/ 4b/ 4d/	.	.
8BB\J	.	.	.	.	.	.
=73	=73	=73	=73	=73	=73	=73
2GG/	.	2b/ 2d/	.	2gg/ 2b/ 2d/	.	1ryy
!	!	!LO:TX:a:t=39.	!	!LO:TX:a:t=39.	!	!
2r	.	2r	.	2r	.	.
=:|!	=:|!	=:|!	=:|!	=:|!	=:|!	=:|!
*-	*-	*-	*-	*-	*-	*-
!!!system-decoration: s1[(s2,s3)]s4
!!!RDF**dynam: p = pia:
!!!RDF**dynam: f = for.
!!!RDF**kern: | = vertical stroke
!!!AIN: 1 empty 2 violn 1 vox
!!!ENC: Marcin Jachimn
!!!END: 2020-05-09
!!!ENC: Leszek Kubiak
!!!END: 2021-12-30
